packages/core/src/svgs/bpro.svg

<svg width="24" height="24" viewBox="0 0 24 24" fill="none" xmlns="http://www.w3.org/2000/svg">
<g clip-path="url(#clip0_31_7320)">
<path d="M0 0H24V24H0V0Z" fill="url(#paint0_linear_31_7320)"/>
<path d="M14.6914 8.14284C14.6586 8.06416 14.6105 7.99277 14.5499 7.93284L12.3299 5.7557C12.2088 5.63588 12.0451 5.56903 11.8748 5.56983C11.7044 5.57063 11.5413 5.63903 11.4214 5.75998L9.29136 7.9157C9.22279 7.98427 9.16279 8.06141 9.12422 8.14713C9.08136 8.23284 9.05993 8.31855 9.05136 8.40427C9.04279 8.49427 9.05136 8.57998 9.07708 8.65713C9.10279 8.73427 9.14565 8.80284 9.20565 8.85855L11.4814 11.1C11.5971 11.2114 11.7599 11.2628 11.9356 11.2414C12.1071 11.2243 12.2871 11.1386 12.4242 10.9971L14.5542 8.84141C14.6434 8.75143 14.7039 8.63712 14.7283 8.51284C14.7527 8.38856 14.7399 8.25984 14.6914 8.14284ZM20.0956 10.0628C20.0656 9.99427 20.0228 9.93427 19.9671 9.87855L17.6399 7.61141C17.5314 7.50632 17.3855 7.44864 17.2344 7.45105C17.0833 7.45347 16.9394 7.51577 16.8342 7.62427L13.0242 11.52C12.8742 11.6743 12.7499 11.85 12.6899 12.0043C12.6256 12.1586 12.6256 12.2828 12.6899 12.3471L15.3471 14.9314C15.4114 14.9957 15.5356 14.9914 15.6899 14.9271C15.8442 14.8586 16.0156 14.7343 16.1699 14.5757L19.9842 10.68C20.0625 10.5992 20.1148 10.4969 20.1347 10.3863C20.1545 10.2756 20.1409 10.1615 20.0956 10.0586V10.0628ZM4.12279 14.4128C3.94929 14.2245 3.85478 13.9767 3.85876 13.7207C3.86275 13.4647 3.96494 13.22 4.14422 13.0371L8.11708 9.05141C8.14324 9.02303 8.17959 9.00618 8.21816 9.00457C8.25673 9.00297 8.29436 9.01673 8.32279 9.04284L8.54993 9.25713C9.26993 9.9257 10.3885 10.9628 10.6499 11.5286C10.8856 12.0471 10.7185 12.6086 10.1356 13.2128C8.98708 14.4128 7.82136 15.5914 6.63422 16.74C6.56565 16.8 6.50993 16.7914 6.46279 16.7143L4.12279 14.4128ZM11.9014 18.4286C12.1328 18.4286 12.3599 18.3343 12.5271 18.1714L14.8885 15.8486C14.9956 15.7414 14.9956 15.6343 14.8885 15.5314L12.5142 13.2214C12.3449 13.0576 12.118 12.9668 11.8825 12.9684C11.6469 12.97 11.4213 13.0639 11.2542 13.23L8.89708 15.5571C8.87818 15.5765 8.86329 15.5995 8.85327 15.6246C8.84326 15.6498 8.83831 15.6767 8.8387 15.7037C8.8391 15.7308 8.84484 15.7575 8.85559 15.7824C8.86635 15.8072 8.8819 15.8297 8.90136 15.8486L11.2756 18.1714C11.4428 18.3343 11.6656 18.4286 11.9014 18.4286Z" fill="#26C068"/>
</g>
<defs>
<linearGradient id="paint0_linear_31_7320" x1="4.46571" y1="4.16143" x2="29.2071" y2="32.58" gradientUnits="userSpaceOnUse">
<stop stop-color="#1A1E21"/>
<stop offset="1" stop-color="#06060A"/>
</linearGradient>
<clipPath id="clip0_31_7320">
<rect width="24" height="24" fill="white"/>
</clipPath>
</defs>
</svg>

<svg xmlns="http://www.w3.org/2000/svg" width="24" height="24" fill="none" viewBox="0 0 24 24"><g clip-path="url(#a)"><path fill="url(#b)" d="M0 0h24v24H0z"/><path fill="#26C068" d="M14.691 8.143a.6.6 0 0 0-.141-.21l-2.22-2.177a.643.643 0 0 0-.909.004l-2.13 2.156a.8.8 0 0 0-.24.488q-.012.136.026.253a.5.5 0 0 0 .129.202L11.48 11.1a.55.55 0 0 0 .455.141.8.8 0 0 0 .488-.244l2.13-2.156a.64.64 0 0 0 .137-.698m5.405 1.92a.6.6 0 0 0-.129-.184L17.64 7.61a.57.57 0 0 0-.806.013l-3.81 3.896c-.15.154-.274.33-.334.484-.064.155-.064.279 0 .343l2.657 2.584c.064.065.189.06.343-.004.154-.068.326-.193.48-.351l3.814-3.896a.57.57 0 0 0 .112-.621zm-15.973 4.35a1 1 0 0 1 .021-1.376l3.973-3.986a.146.146 0 0 1 .206-.008l.227.214c.72.669 1.838 1.706 2.1 2.272.236.518.069 1.08-.514 1.684a129 129 0 0 1-3.502 3.527q-.101.09-.171-.026zm7.778 4.016a.9.9 0 0 0 .626-.258l2.362-2.322q.16-.163 0-.318l-2.375-2.31a.9.9 0 0 0-1.26.009l-2.357 2.327a.207.207 0 0 0 .004.292l2.375 2.322c.167.163.39.258.625.258"/></g><defs><linearGradient id="b" x1="4.466" x2="29.207" y1="4.161" y2="32.58" gradientUnits="userSpaceOnUse"><stop stop-color="#1A1E21"/><stop offset="1" stop-color="#06060A"/></linearGradient><clipPath id="a"><path fill="#fff" d="M0 0h24v24H0z"/></clipPath></defs></svg>
